X:17
T:La Belle Catherine
F:http://www.vwml.org/record/Moore1/4493/p11
Z:Transcribed by Paul Barber-Riley  March 2016
S:John Moore's Book 1
L:1/8
M:2/4
K:D
d2 f/e/d/e/ | fddc | Beed | cA A2 |
d2 f/e/d/e/ | fddc | Be d/c/B/c/ | !fermata!d3:|
|:A/G/| FAAG | FAAG | FA df | e/d/c/B/ AG |
FA AB/c/ | df/d/ ce/c/ | de/f/ g/f/e/d/ | a3A:|

